X:1
T:Längtan till landet
T:Längtan till landet
T:Vintern rasat 
T:Komp: Otto Lindblad
T:Tekst: Herman Sätherberg
C:Otto Lindblad
Z:Herman Sätherbrg
%%score [ 1 2 3 4 ]
L:1/8
Q:1/4=120
M:4/4
K:D
V:1 treble-8 nm="Tenor"
V:2 treble-8 nm="Tenor"
V:3 bass nm="Baryton"
V:4 bass nm="Bass"
V:1
!f!"^Tempo di marcia" d2 d2 !>!f3 e | e3/2 d/ c3/2 d/ e2 e2 | f2 f2 !>!g3 f | %3
w: 1.Vin- tern ra- sat|ut bland vå- ra fjäl- lar,|dri- vans blom- mor|
w: 2.Ja, jag kom- mer!|Häl- sen, gla- da vin- dar,|ut till lan- det,|
 f3/2 e/ e3/2 e/ e2 z2 | d2 d2 !>!f3 e | e3/2 d/ c3/2 d/ e2 e2 | e2 f2 !>!f3/2 e/ A3/2 B/ | %7
w: smäl- ta ned och dö.|Him- len ler i|vå- rens lju- sa kväl- lar,|so- len kys- ser liv i|
w: ut till fåg- lar- ne,|att jag äl- skar|dem, till björk och lin- dar,|sjö och berg, jag vill dem|
 c2 B2 A2 z2 |:!p! A3/2 B/ A3/2 B/ A2 f2 | f2 (e>d) d2 c2 | A3/2 B/ A3/2 B/ A2 g2 | g2 (fe) d2 z2 | %12
w: skog och sjö.|Snart är som- marn här i|pur- pur- * vå- gor,|guld- be- lag- da, a- zur-|skif- tan- * de|
w: å- ter- se,|se dem än som i min|barn- doms _ stun- der|föl- ja bäck- ens dans till|klar- nad _ sjö,|
 A3/2 B/ A3/2 B/ A2 f2 |!<(! e2 (fg) a2!<)! f2 |!ff! e3 e e3 e | f3/2 f/ f3/2 e/ d2 z2 :| %16
w: lig- ga äng- ar- ne i|da- gens _ lå- gor,|och i lun- den|dan- sa käl- lor- ne.|
w: tras- tens sång i fu- ru-|sko- gens _ lun- der,|vat- ten- få- gelns|lek kring fjärd och ö.|
V:2
!f! A2 A2 !>!d3 d | c3/2 B/ A3/2 B/ c2 c2 | d2 d2 !>!d3 d | d3/2 d/ d3/2 d/ c2 z2 | A2 A2 !>!d3 d | %5
w: 1.Vin- tern ra- sat|ut bland vå- ra fjäl- lar,|dri- vans blom- mor|smäl- ta ned och dö.|Him- len ler i|
w: 2.Ja, jag kom- mer!|Häl- sen, gla- da vin- dar,|ut till lan- det,|ut till fåg- lar- ne,|att jag äl- skar|
 c3/2 B/ A3/2 B/ c2 c2 | B2 B2 !>!A3/2 A/ A3/2 A/ | A2 ^G2 A2 z2 |:!p! .F .F .F .F F2 A2 | %9
w: vå- rens lju- sa kväl- lar,|so- len kys- ser liv i|skog och sjö.|Snart är som- marn här i|
w: dem, till björk och lin- dar,|sjö och berg, jag vill dem|å- ter- se,|se dem än som i min|
 A2 A2 A2 A2 | .G .G .G .G G2 E2 | c2 (dA) A2 z2 | .F .F .F .F F2 A2 |!<(! c2 (de) f2!<)! d2 | %14
w: pur- pur- vå- gor,|guld- be- lag- da, a- zur-|skif- tan- * de|lig- ga äng- ar- ne i|da- gens _ lå- gor,|
w: barn- doms stun- der|föl- ja bäck- ens dans till|klar- nad _ sjö,|tras- tens sång i fu- ru-|sko- gens _ lun- der,|
!ff! d3 d d3 d | d3/2 d/ c3/2 c/ d2 z2 :| %16
w: och i lun- den|dan- sa käl- lor- ne.|
w: vat- ten- få- gelns|lek kring fjärd och ö.|
V:3
!f!!f! F,2 F,2 !>!^G,3 G, | A,3/2 A,/ A,3/2 A,/ A,2 A,2 | A,2 A,2 !>!B,3 A, | %3
w: 1.Vin- tern ra- sat|ut bland vå- ra fjäl- lar,|dri- vans blom- mor|
w: 2.Ja, jag kom- mer!|Häl- sen, gla- da vin- dar,|ut till lan- det,|
 B,3/2 B,/ B,3/2 B,/ A,2 z2 | F,2 F,2 !>!^G,3 G, | A,3/2 A,/ A,3/2 A,/ A,2 A,2 | %6
w: smäl- ta ned och dö.|Him- len ler i|vå- rens lju- sa kväl- lar,|
w: ut till fåg- lar- ne,|att jag äl- skar|dem, till björk och lin- dar,|
 ^G,2 G,2 !>!A,3/2 A,/ F,3/2 F,/ | E,2 D,2 C,2 z2 |:!p!!p! .D, .D, .D, .D, D,2 D,2 | %9
w: so- len kys- ser liv i|skog och sjö.|Snart är som- marn här i|
w: sjö och berg, jag vill dem|å- ter- se,|se dem än som i min|
 D,2 ((G,>F,)) G,2 G,2 | .E, .E, .E, .E, E,2 A,2 | A,2 ((A,G,)) F,2 z2 | .D, .D, .D, .D, D,2 D,2 | %13
w: pur- pur- * vå- gor,|guld- be- lag- da, a- zur-|skif- tan- * de|lig- ga äng- ar- ne i|
w: barn- doms _ stun- der|föl- ja bäck- ens dans till|klar- nad _ sjö,|tras- tens sång i fu- ru-|
!<(!!<(! A,2 A,2 A,2!<)!!<)! A,2 |!ff! B,3 B, B,3 B, | A,3/2 A,/ G,3/2 G,/ F,2 z2 :| %16
w: da- gens lå- gor,|och i lun- den|dan- sa käl- lor- ne.|
w: sko- gens lun- der,|vat- ten- få- gelns|lek kring fjärd och ö.|
V:4
!f!!f! D,2 D,2 !>!B,,3 B,, | A,,3/2 A,,/ A,,3/2 A,,/ A,,2 A,,2 | D,2 D,2 !>!D,3 D, | %3
w: 1.Vin- tern ra- sat|ut bland vå- ra fjäl- lar,|dri- vans blom- mor|
w: 2.Ja, jag kom- mer!|Häl- sen, gla- da vin- dar,|ut till lan- det,|
 G,3/2 G,/ ^G,3/2 G,/ A,2 z2 | D,2 D,2 !>!B,,3 B,, | A,,3/2 A,,/ A,,3/2 A,,/ A,,2 A,,2 | %6
w: smäl- ta ned och dö.|Him- len ler i|vå- rens lju- sa kväl- lar,|
w: ut till fåg- lar- ne,|att jag äl- skar|dem, till björk och lin- dar,|
 E,2 D,2 !>!C,3/2 C,/ D,3/2 D,/ | E,2 E,2 A,,2 z2 |:!p!!p! .D, .A,, .D, .A,, D,2 D,2 | %9
w: so- len kys- ser liv i|skog och sjö.|Snart är som- marn här i|
w: sjö och berg, jag vill dem|å- ter- se,|se dem än som i min|
 D,2 ((C,>D,)) E,2 E,2 | .E, .A,, .E, .A,, C,2 C,2 | E,2 ((D,C,)) D,2 z2 | %12
w: pur- pur- * vå- gor,|guld- be- lag- da, a- zur-|skif- tan- * de|
w: barn- doms _ stun- der|föl- ja bäck- ens dans till|klar- nad _ sjö,|
 .D, .A,, .D, .A,, D,2 D,2 |!<(!!<(! G,2 F,>E, D,2!<)!!<)! D,2 |!ff! G,3 G, ^G,3 G, | %15
w: lig- ga äng- ar- ne i|da- gens _ lå- gor,|och i lun- den|
w: tras- tens sång i fu- ru-|sko- gens _ lun- der,|vat- ten- få- gelns|
 A,3/2 A,/ A,,3/2 A,,/ D,2 z2 :| %16
w: dan- sa käl- lor- ne.|
w: lek kring fjärd och ö.|

